svgs/bounce_defense.svg

<svg width="192" height="192" viewBox="0 0 192 192" fill="none" xmlns="http://www.w3.org/2000/svg">
<path d="M161.841 71.1388C152.961 80.3445 139.464 82.4096 128.517 77.2051C125.756 75.8924 123.157 74.1174 120.835 71.8778C109.308 60.7585 108.977 42.3997 120.096 30.8723C123.27 27.5819 127.034 25.2037 131.06 23.7437C141.14 20.0889 152.865 22.1879 161.102 30.1333C172.629 41.2525 172.96 59.6114 161.841 71.1388Z" stroke="black" stroke-width="12" stroke-linejoin="round"/>
<path d="M62.822 119.366L34.3776 100.362C28.501 96.4353 20.7917 101.57 22.1596 108.5L33.0389 163.614C33.8869 167.91 38.0634 170.7 42.3674 169.846L97.5875 158.896C104.53 157.519 106.354 148.451 100.477 144.525L78.6004 129.908M62.822 119.366L86.6467 66.4824M62.822 119.366L59.0645 127.707C56.7514 132.841 62.1473 138.046 67.195 135.549L78.6004 129.908M78.6004 129.908L127.386 105.779" stroke="black" stroke-width="12" stroke-linecap="round" stroke-linejoin="round"/>
</svg>

<svg xmlns="http://www.w3.org/2000/svg" width="192" height="192" fill="none" viewBox="0 0 192 192"><path stroke="#000" stroke-linejoin="round" stroke-width="12" d="M161.841 71.139c-8.88 9.206-22.377 11.27-33.324 6.066a29 29 0 0 1-7.682-5.327c-11.527-11.12-11.858-29.478-.739-41.006a28.9 28.9 0 0 1 10.964-7.128c10.08-3.655 21.805-1.556 30.042 6.39 11.527 11.118 11.858 29.477.739 41.005Z"/><path stroke="#000" stroke-linecap="round" stroke-linejoin="round" stroke-width="12" d="m62.822 119.366-28.444-19.004C28.5 96.435 20.792 101.57 22.16 108.5l10.879 55.114c.848 4.296 5.024 7.086 9.328 6.232l55.22-10.95c6.943-1.377 8.767-10.445 2.89-14.371L78.6 129.908m-15.778-10.542 23.825-52.884m-23.825 52.884-3.758 8.341c-2.313 5.134 3.083 10.339 8.131 7.842l11.405-5.641m0 0 48.786-24.129"/></svg>
